X: 48
T: Mon seul et cele souvenir
N: Derived from Bus3044-Mon_seul_et_cele_souvenir.krn
C: Antoine Busnoys
%%abc-version 2.0
%%abcx-abcm2ps-target-version 5.9.1 (29 Sep 2008)
%%abc-creator hum2abc beta
%%abcx-conversion-date 2019/02/16 20:26:07
%%abc-edited-by Jesse Rodin
%%abc-edited-by Chris Gage 04-22-2015
%%abcx-initial-encoding-date 2015/06/07/
%%humdrum-veritas 601594060
%%humdrum-veritas-data 3892513324
%%linebreak <none>
%%barnumbers 0
L: 1/4
M: 2/1
Q: 1/2=120
V: 1 clef=treble
V: 2 clef=treble-8
V: 3 clef=bass
K: F
[V:1] z8 | 
[V:2] z8 | 
[V:3] G,8 | 
[V:1] z8 | 
[V:2] z8 | 
[V:3] F,4F,4 | 
[V:1] G8 | 
[V:2] z8 | 
[V:3] B,8 | 
[V:1] F4F4 | 
[V:2] z8 | 
[V:3] A,8 | 
[V:1] B8 | 
[V:2] G8 | 
[V:3] z4G,4 | 
[V:1] A8 | 
[V:2] F4F4 | 
[V:3] D,8 | 
[V:1] z4G4 | 
[V:2] B8 | 
[V:3] G,,8 | 
[V:1] F4F4 | 
[V:2] A8 | 
[V:3] D,8 | 
[V:1] G4B4 | 
[V:2] z4G4 | 
[V:3] G,,8 | 
[V:1] A4c4 | 
[V:2] F4F4 | 
[V:3] D,3C,/B,,/A,,4 | 
[V:1] B6AG | 
[V:2] G4B4 | 
[V:3] G,,8 | 
[V:1] F4E4 | 
[V:2] A4c4 | 
[V:3] D,4C,4 | 
[V:1] D4G4- | 
[V:2] B4G4 | 
[V:3] G,4E,4 | 
[V:1] G4^F4 | 
[V:2] A8 | 
[V:3] D,8 | 
[V:1] G8 | 
[V:2] G8- | 
[V:3] z4B,,4 | 
[V:1] z4G4 | 
[V:2] G8 | 
[V:3] G,,8 | 
[V:1] F4G4 | 
[V:2] z4G4 | 
[V:3] D,4E,4 | 
[V:1] A4B2G2 | 
[V:2] F4G4 | 
[V:3] D,4G,,4 | 
[V:1] F4G4 | 
[V:2] A4B2G2 | 
[V:3] z2D,2G,,4 | 
[V:1] A4D4 | 
[V:2] F4G4 | 
[V:3] D,3C,B,,4 | 
[V:1] C4F4 | 
[V:2] A4D4 | 
[V:3] A,,4A,3G,/F,/ | 
[V:1] E2G2F2D2- | 
[V:2] C4D2F2 | 
[V:3] G,2E,2z2D,2 | 
[V:1] D2^C2D2B,2 | 
[V:2] E4D2G2- | 
[V:3] A,,4B,,2G,,2 | 
[V:1] A,4G,2B,2- | 
[V:2] G2^F2G4 | 
[V:3] D,4G,,4 | 
[V:1] B,2A,2G,2D2- | 
[V:2] z2F2G4 | 
[V:3] D,4G,,4- | 
[V:1] D2G2F2E2- | 
[V:2] B4A2G2- | 
[V:3] G,,2B,,2F,,2C,2- | 
[V:1] E2D4^C2 | 
[V:2] G2F2E4 | 
[V:3] C,2D,2A,,4 | 
[V:1] D8 | 
[V:2] D8- | 
[V:3] z4A,4- | 
[V:1] z4F4 | 
[V:2] D8 | 
[V:3] A,2F,4D,2 | 
[V:1] G4A4 | 
[V:2] z4F4 | 
[V:3] E,4D,4 | 
[V:1] z2B4c2 | 
[V:2] G4A4 | 
[V:3] G,,4z2F,,2 | 
[V:1] B2B4A2 | 
[V:2] z2B2c4 | 
[V:3] B,,4F,4 | 
[V:1] B3AG4 | 
[V:2] B8 | 
[V:3] B,,6C,2 | 
[V:1] F4B4- | 
[V:2] A4G4 | 
[V:3] D,4_E,4 | 
[V:1] B4A4 | 
[V:2] d4c4 | 
[V:3] D,4F,4 | 
[V:1] G6^FE | 
[V:2] B8 | 
[V:3] G,8 | 
[V:1] ^F8- | 
[V:2] A8 | 
[V:3] D,8- | 
[V:1] F8 | 
[V:2] d8- | 
[V:3] D,8 | 
[V:1] z8 | 
[V:2] d8 | 
[V:3] z8 | 
[V:1] F8 | 
[V:2] d8 | 
[V:3] D,8 | 
[V:1] G8 | 
[V:2] _e8 | 
[V:3] C,4C,4 | 
[V:1] F4B4- | 
[V:2] d4B4 | 
[V:3] z4B,,4 | 
[V:1] B4A4 | 
[V:2] c8 | 
[V:3] F,8 | 
[V:1] B4c3B | 
[V:2] B4A2c2- | 
[V:3] B,,4F,4- | 
[V:1] A4G4 | 
[V:2] c2A2B3A | 
[V:3] F,4G,4 | 
[V:1] z2B2A2F2 | 
[V:2] G4F4 | 
[V:3] _E,4z2F,2 | 
[V:1] G4F4 | 
[V:2] E4D4 | 
[V:3] C,4F,4 | 
[V:1] E4D2D2- | 
[V:2] G4F4 | 
[V:3] C,4D,4 | 
[V:1] D2^C2C2=B,2 | 
[V:2] E8 | 
[V:3] z4z2A,,2 | 
[V:1] D4D4 | 
[V:2] z2D2G4 | 
[V:3] B,,4G,,4 | 
[V:1] z2D2G4 | 
[V:2] F4B4 | 
[V:3] D,4G,,4 | 
[V:1] F4B4 | 
[V:2] A4z2d2 | 
[V:3] D,6E,2 | 
[V:1] A4z2d2 | 
[V:2] c3B/A/G4 | 
[V:3] F,4G,2B,2 | 
[V:1] c2BAG4 | 
[V:2] z2A2B2c2 | 
[V:3] A,2F,2G,3F,/E,/ | 
[V:1] F6B2- | 
[V:2] d3c/B/A2G2 | 
[V:3] D,2F,4G,2 | 
[V:1] B2A4G2 | 
[V:2] c4B4 | 
[V:3] A,2F,2G,3E, | 
[V:1] A2c4B2- | 
[V:2] A6d2- | 
[V:3] F,2A,4G,F, | 
[V:1] B2AGF2B2- | 
[V:2] d2c2d4 | 
[V:3] E,4D,4 | 
[V:1] BAA3GFE | 
[V:2] _e2c2d2A2 | 
[V:3] z2A,,2B,,2D,2 | 
[V:1] D2G4^F2 | 
[V:2] B2G2A4 | 
[V:3] G,,2_E,2D,4 | 
[V:1] G8 |]  
[V:2] G8 |]  
[V:3] G,,8 |]  



